packages/calcite-ui-icons/icons/organize-template-16.svg

<?xml version="1.0" encoding="UTF-8"?><svg id="icons" xmlns="http://www.w3.org/2000/svg" viewBox="0 0 16 16"><defs><style>.cls-1{fill:none;}</style></defs><path d="M2,4h3v1h-3v-1ZM2,7h3v-1h-3v1ZM1,1h11c0-.55231-.44769-1-1-1H1C.44769,0,0,.44769,0,1v7c0,.55225.44769,1,1,1h4v-1H1V3h4.12323c.10645-.37274.28259-.71014.51666-1H1v-1ZM16,3.79486v10.41028c0,.9903-.74707,1.79486-1.66669,1.79486h-6.66663c-.91962,0-1.66669-.80457-1.66669-1.79486V3.79486c0-.98865.74707-1.79486,1.66669-1.79486h6.66663c.91962,0,1.66669.80621,1.66669,1.79486ZM15,3.90906c0-.50208-.37311-.90906-.83331-.90906h-6.33337c-.46021,0-.83331.40698-.83331.90906v10.18182c0,.50208.37311.90912.83331.90912h6.33337c.46021,0,.83331-.40704.83331-.90912V3.90906ZM8,13h2v-2h-2v2ZM8,10h2v-2h-2v2ZM8,7h2v-2h-2v2ZM11,6h3v-1h-3v1ZM11,12h3v-1h-3v1ZM11,9h3v-1h-3v1Z"/><rect class="cls-1" width="16" height="16"/></svg>

<svg xmlns="http://www.w3.org/2000/svg" viewBox="0 0 16 16"><path d="M2 4h3v1H2zm0 3h3V6H2zM1 1h11a1 1 0 0 0-1-1H1a1 1 0 0 0-1 1v7a1 1 0 0 0 1 1h4V8H1V3h4.123c.107-.373.283-.71.517-1H1zm15 2.795v10.41c0 .99-.747 1.795-1.667 1.795H7.667C6.747 16 6 15.195 6 14.205V3.795C6 2.806 6.747 2 7.667 2h6.666C15.253 2 16 2.806 16 3.795m-1 .114c0-.502-.373-.909-.833-.909H7.833C7.373 3 7 3.407 7 3.91v10.18c0 .503.373.91.833.91h6.334c.46 0 .833-.407.833-.91zM8 13h2v-2H8zm0-3h2V8H8zm0-3h2V5H8zm3-1h3V5h-3zm0 6h3v-1h-3zm0-3h3V8h-3z"/><path d="M0 0h16v16H0z" style="fill:none"/></svg>
